X:106
T:Listen to the Voice of Love. LIT.106
M:2/4
Q:1/4=115
L:1/8
B:Wm. Litten MS, 1802
Z:Village Music Project 2017 Anne Wride
K:D
A | A<F G<E | D3d | dc BA | d3e |
f>d dB | ec cA | B<A B>c | A3 A |
Ad fd | c/d/e z A | Ad fd | c/d/e z A |
d3 c | cB BA | AG GF | FEz A |
A<F G<E | D3d | dc BA | Hg3 e |
g>d d<B | A/B/c/d/ c/d/ D/G/ | F2 E2 | D3 |]

